X: 266
T:Crawfords Reel
M:4/4
N:In a rare outbreak of editorialising on the woodenflute abc archive, I've
N:inserted into this transcription the 3rd bar of the B part from Rachel
N:Marsh's transcription - Pat posted this version asking for how that bar
N:went, and Rachel duly obliged. Steve Mansfield October 2000
D:Sona ( Launching the Boat ) ( Also PJ and Marcus Hernon )
Z:Pat Higgins
K:G
|G3A B3A|GBdB cAA2|AGFG A2AB|cBAG FDEF|GDGA B2BA|GBdB cABc|dBcA BGAG|FGAc
BGG2:||Bc
||dgg2  bgaf|defg afge|dgg2 bgaf|fdcA BGBc|dgg2 b2af|defg a2gf|dgg2 dgg2
|a3g fdBc:||

